X:4622
T:Newcastle hornpipe
O:england
R:Hornpipe
M:4/4
C:James Hill
K:C
(3dcB|\
c2C2 (3edc (3BAG|F2a4 g>f|\
e>g c>e d>f B>d|c>c' b>a g>f e>d|
c2C2 (3fed (3BAG|F2A4 g>f|\
e>g c>e d>f B>d|(3ceg (3c'ge c2||
(3DCB,|\
C>E G>c e>g c'>b|b>a a>^g a2C2|\
B,>D G>B B>g b>a|a>g g>f g2 (3DCB,|
C>E G>c e>g c'>b|b>a a>^g a2 c'2|\
b>a g>f e>d c>B|(3ceg (3c'ge c2|]
